X: 65
T: Cregg's Pipes 
T: Kerry Huntsman [The]
M: 4/4
L: 1/8
R: reel
K: G
B3 B BAGA|B2GB AGEG|B3 B BAGB|A2 BG AGEG|
B3 B BAGA|B2GB AGEG|Beed BddB|(3ABc BG AGEG||
DG ~G2 DGBG|DGBG AGEG|DGGF GABc|dBAc BG G2 :|
d2 Bd efge|d2BG AGEG|d2Bd efge|a2bg ageg :|
